X: 43227
T: Within A Mile Of Dublin
R: reel
M: 4/4
K: Dmixolydian
FG|ADDE FEFG|AddB cABG|AD (3DDD FEFG|AdcA G2 FG|
AD (3DDD FEFG|AddB cABG|AD (3DDD FEFG|AdcA G2 FG|
Addc AGFG|Adde f2ed|Addc AGFG|AdcA G2 FG|
Addc AGFG|Adde f2 fg|afge fde^c|dcAF G2 FG|

